dist/static/img/shop/04.svg

<svg width="48" height="48" viewBox="0 0 48 48" fill="none" xmlns="http://www.w3.org/2000/svg">
<g clip-path="url(#clip0_1075_6552)">
<path d="M47.2969 14.0609H43.7781C43.3897 14.0609 43.0749 14.3756 43.0749 14.764V15.8203H38.7188V8.361H39.8906C40.279 8.361 40.5938 8.04628 40.5938 7.65788V4.13897C40.5938 3.75056 40.279 3.43584 39.8906 3.43584H36.3718C35.9834 3.43584 35.6687 3.75056 35.6687 4.13897V7.65778C35.6687 8.04619 35.9834 8.36091 36.3718 8.36091H37.3125V15.8202H24.7031V11.039H27.6937V12.0953C27.6937 12.4837 28.0084 12.7984 28.3968 12.7984H31.9156C32.304 12.7984 32.6187 12.4837 32.6187 12.0953V8.57653C32.6187 8.18813 32.304 7.87341 31.9156 7.87341H28.3968C28.0084 7.87341 27.6937 8.18813 27.6937 8.57653V9.63281H24.7031V4.9485H25.7594C26.1478 4.9485 26.4625 4.63378 26.4625 4.24538V0.726562C26.4625 0.338156 26.1478 0.0234375 25.7594 0.0234375H22.2407C21.8523 0.0234375 21.5376 0.338156 21.5376 0.726562V4.24538C21.5376 4.63378 21.8523 4.9485 22.2407 4.9485H23.2969V9.63281H20.3063V8.57653C20.3063 8.18813 19.9916 7.87341 19.6032 7.87341H16.0844C15.696 7.87341 15.3813 8.18813 15.3813 8.57653V12.0953C15.3813 12.4837 15.696 12.7984 16.0844 12.7984H19.6032C19.9916 12.7984 20.3063 12.4837 20.3063 12.0953V11.039H23.2969V15.8202H10.6875V8.361H11.6282C12.0166 8.361 12.3313 8.04628 12.3313 7.65788V4.13897C12.3313 3.75056 12.0166 3.43584 11.6282 3.43584H8.10938C7.72097 3.43584 7.40625 3.75056 7.40625 4.13897V7.65778C7.40625 8.04619 7.72097 8.36091 8.10938 8.36091H9.28125V15.8202H4.92506V14.7639C4.92506 14.3755 4.61034 14.0608 4.22194 14.0608H0.703125C0.314719 14.0608 0 14.3755 0 14.7639V18.2827C0 18.6711 0.314719 18.9858 0.703125 18.9858H4.22194C4.61034 18.9858 4.92506 18.6711 4.92506 18.2827V17.2264H18.2756V22.6214H11.3062V21.5764C11.3062 21.188 10.9915 20.8732 10.6031 20.8732H7.08431C6.69591 20.8732 6.38119 21.188 6.38119 21.5764V25.0952C6.38119 25.4836 6.69591 25.7983 7.08431 25.7983H10.6031C10.9915 25.7983 11.3062 25.4836 11.3062 25.0952V24.0277H18.9788C19.3672 24.0277 19.6819 23.7129 19.6819 23.3245V17.2264H23.2969V27.9142H20.7159C19.8068 27.9142 19.8068 29.3205 20.7159 29.3205H26.6828L24.3701 32.6213H12.0819L14.3948 29.3205H16.9857C17.8948 29.3205 17.8948 27.9142 16.9857 27.9142H14.0288C13.7995 27.9142 13.5847 28.0261 13.4529 28.2139L10.1549 32.921C9.83438 33.3787 10.172 34.0276 10.7308 34.0276H13.3256V47.2729C13.3256 47.6613 13.6403 47.976 14.0287 47.976H33.9712C34.3597 47.976 34.6744 47.6613 34.6744 47.2729V43.8982C34.6744 42.9892 33.2681 42.9892 33.2681 43.8982V46.5697H28.7371V30.8452L30.757 33.7281C30.8887 33.9158 31.1035 34.0277 31.3329 34.0277H33.2682V39.9608C33.2682 40.8699 34.6745 40.8699 34.6745 39.9608V34.0277H37.2693C37.8281 34.0277 38.1656 33.3787 37.8452 32.9211L34.5472 28.214C34.4157 28.0262 34.2007 27.9143 33.9713 27.9143H24.7031V17.2266H28.3181V23.3247C28.3181 23.7131 28.6328 24.0278 29.0212 24.0278H36.6937V25.0954C36.6937 25.4838 37.0085 25.7985 37.3969 25.7985H40.9157C41.3041 25.7985 41.6188 25.4838 41.6188 25.0954V21.5766C41.6188 21.1882 41.3041 20.8734 40.9157 20.8734H37.3969C37.0085 20.8734 36.6937 21.1882 36.6937 21.5766V22.6216H29.7244V17.2266H43.0749V18.2828C43.0749 18.6712 43.3897 18.986 43.7781 18.986H47.2969C47.6853 18.986 48 18.6712 48 18.2828V14.7641C48 14.3757 47.6853 14.0609 47.2969 14.0609ZM37.0749 4.84209H39.1875V6.95466H37.0749V4.84209ZM29.0999 9.27966H31.2125V11.3921H29.0999V9.27966ZM22.9437 1.42969H25.0562V3.54225H22.9437V1.42969ZM18.9001 11.3922H16.7875V9.27966H18.9001V11.3922ZM8.8125 4.84209H10.9251V6.95466H8.8125V4.84209ZM3.51881 17.5797H1.40625V15.4672H3.51881V17.5797ZM9.90009 24.3923H7.78744V22.2797H9.9V24.3923H9.90009ZM14.7319 46.5699V34.0278H24.7361C24.9654 34.0278 25.1804 33.9159 25.312 33.7282L27.3309 30.8466V46.57H14.7319V46.5699ZM33.6053 29.3207L35.9181 32.6215H31.6988L29.386 29.3207H33.6053ZM38.0999 22.2796H40.2125V24.3922H38.0999V22.2796ZM46.5938 17.5797H44.4812V15.4672H46.5938V17.5797Z" fill="white"/>
</g>
<defs>
<clipPath id="clip0_1075_6552">
<rect width="48" height="48" fill="white"/>
</clipPath>
</defs>
</svg>

<svg width="48" height="48" viewBox="0 0 48 48" fill="none" xmlns="http://www.w3.org/2000/svg"><g clip-path="url(#clip0_1075_6552)"><path d="M47.297 14.06h-3.519a.703.703 0 00-.703.704v1.056h-4.356V8.361h1.172a.703.703 0 00.703-.703V4.139a.703.703 0 00-.703-.703h-3.52a.703.703 0 00-.702.703v3.519c0 .388.314.703.703.703h.94v7.46H24.703v-4.782h2.99v1.056c0 .389.315.703.704.703h3.519a.703.703 0 00.703-.703V8.577a.703.703 0 00-.703-.704h-3.52a.703.703 0 00-.702.704v1.056h-2.99V4.949h1.055a.703.703 0 00.703-.704V.727a.703.703 0 00-.703-.704h-3.518a.703.703 0 00-.703.704v3.518c0 .389.314.704.703.704h1.056v4.684h-2.99V8.577a.703.703 0 00-.704-.704h-3.519a.703.703 0 00-.703.704v3.518c0 .389.315.703.703.703h3.52a.703.703 0 00.702-.703V11.04h2.99v4.781H10.689v-7.46h.94a.703.703 0 00.703-.703V4.139a.703.703 0 00-.703-.703H8.11a.703.703 0 00-.703.703v3.519c0 .388.315.703.703.703h1.172v7.46H4.925v-1.057a.703.703 0 00-.703-.703H.703a.703.703 0 00-.703.703v3.519c0 .388.315.703.703.703h3.519a.703.703 0 00.703-.703v-1.057h13.35v5.395h-6.969v-1.045a.703.703 0 00-.703-.703H7.084a.703.703 0 00-.703.703v3.52c0 .388.315.702.703.702h3.52a.703.703 0 00.702-.703v-1.067h7.673a.703.703 0 00.703-.703v-6.099h3.615v10.688h-2.581c-.91 0-.91 1.406 0 1.406h5.967l-2.313 3.301H12.082l2.313-3.3h2.59c.91 0 .91-1.407 0-1.407H14.03a.704.704 0 00-.576.3l-3.298 4.707c-.32.458.017 1.107.576 1.107h2.595v13.245c0 .388.314.703.703.703h19.94a.703.703 0 00.703-.703v-3.375c0-.909-1.406-.909-1.406 0v2.672h-4.53V30.845l2.019 2.883c.132.188.346.3.576.3h1.935v5.933c0 .909 1.407.909 1.407 0v-5.933h2.594c.56 0 .897-.65.576-1.107l-3.298-4.707a.703.703 0 00-.576-.3h-9.268V17.227h3.615v6.098c0 .388.315.703.703.703h7.673v1.067c0 .389.314.704.703.704h3.519a.703.703 0 00.703-.704v-3.518a.703.703 0 00-.703-.704h-3.52a.703.703 0 00-.702.704v1.045h-6.97v-5.395h13.35v1.056c0 .388.316.703.704.703h3.519a.703.703 0 00.703-.703v-3.519a.703.703 0 00-.703-.703zM37.075 4.843h2.112v2.113h-2.112V4.842zM29.1 9.28h2.112v2.112H29.1V9.28zm-6.156-7.85h2.112v2.112h-2.112V1.43zM18.9 11.392h-2.112V9.28H18.9v2.112zM8.813 4.842h2.112v2.113H8.812V4.842zM3.519 17.58H1.406v-2.113H3.52v2.113zM9.9 24.392H7.787V22.28H9.9v2.112zm4.832 22.178V34.028h10.004c.23 0 .444-.112.576-.3l2.019-2.881V46.57h-12.6zm18.873-17.25l2.313 3.301h-4.22l-2.312-3.3h4.22zm4.495-7.04h2.112v2.112H38.1V22.28zm8.494-4.7H44.48v-2.113h2.113v2.113z" fill="#fff"/></g><defs><clipPath id="clip0_1075_6552"><path fill="#fff" d="M0 0h48v48H0z"/></clipPath></defs></svg>
